tools/download-figma-icons/icons/outlined-medium/business-building.svg

<svg width="24" height="25" viewBox="0 0 24 25" fill="none" xmlns="http://www.w3.org/2000/svg">
<path d="M23.25 5.25H18.75V0.75C18.75 0.551088 18.671 0.360322 18.5303 0.21967C18.3897 0.0790176 18.1989 0 18 0L6 0C5.80109 0 5.61032 0.0790176 5.46967 0.21967C5.32902 0.360322 5.25 0.551088 5.25 0.75V5.25H0.75C0.551088 5.25 0.360322 5.32902 0.21967 5.46967C0.0790176 5.61032 0 5.80109 0 6L0 23.25C0 23.4489 0.0790176 23.6397 0.21967 23.7803C0.360322 23.921 0.551088 24 0.75 24H6C6.03491 24.0035 6.07009 24.0035 6.105 24H17.895C17.9299 24.0035 17.9651 24.0035 18 24H23.25C23.4489 24 23.6397 23.921 23.7803 23.7803C23.921 23.6397 24 23.4489 24 23.25V6C24 5.80109 23.921 5.61032 23.7803 5.46967C23.6397 5.32902 23.4489 5.25 23.25 5.25ZM1.5 6.75H5.25V22.5H1.5V6.75ZM6.75 6V1.5H17.25V22.5H6.75V6ZM22.5 22.5H18.75V6.75H22.5V22.5Z" fill="black"/>
<path d="M15 9H9C8.80109 9 8.61032 9.07902 8.46967 9.21967C8.32902 9.36032 8.25 9.55109 8.25 9.75C8.25 9.94891 8.32902 10.1397 8.46967 10.2803C8.61032 10.421 8.80109 10.5 9 10.5H15C15.1989 10.5 15.3897 10.421 15.5303 10.2803C15.671 10.1397 15.75 9.94891 15.75 9.75C15.75 9.55109 15.671 9.36032 15.5303 9.21967C15.3897 9.07902 15.1989 9 15 9Z" fill="black"/>
<path d="M15 5.25H9C8.80109 5.25 8.61032 5.32902 8.46967 5.46967C8.32902 5.61032 8.25 5.80109 8.25 6C8.25 6.19891 8.32902 6.38968 8.46967 6.53033C8.61032 6.67098 8.80109 6.75 9 6.75H15C15.1989 6.75 15.3897 6.67098 15.5303 6.53033C15.671 6.38968 15.75 6.19891 15.75 6C15.75 5.80109 15.671 5.61032 15.5303 5.46967C15.3897 5.32902 15.1989 5.25 15 5.25Z" fill="black"/>
<path d="M15 12.75H9C8.80109 12.75 8.61032 12.829 8.46967 12.9697C8.32902 13.1103 8.25 13.3011 8.25 13.5C8.25 13.6989 8.32902 13.8897 8.46967 14.0303C8.61032 14.171 8.80109 14.25 9 14.25H15C15.1989 14.25 15.3897 14.171 15.5303 14.0303C15.671 13.8897 15.75 13.6989 15.75 13.5C15.75 13.3011 15.671 13.1103 15.5303 12.9697C15.3897 12.829 15.1989 12.75 15 12.75Z" fill="black"/>
<path d="M15 16.5H9C8.80109 16.5 8.61032 16.579 8.46967 16.7197C8.32902 16.8603 8.25 17.0511 8.25 17.25C8.25 17.4489 8.32902 17.6397 8.46967 17.7803C8.61032 17.921 8.80109 18 9 18H15C15.1989 18 15.3897 17.921 15.5303 17.7803C15.671 17.6397 15.75 17.4489 15.75 17.25C15.75 17.0511 15.671 16.8603 15.5303 16.7197C15.3897 16.579 15.1989 16.5 15 16.5Z" fill="black"/>
</svg>

<svg width="24" height="25" viewBox="0 0 24 25" fill="none" xmlns="http://www.w3.org/2000/svg"><path d="M23.25 5.25h-4.5V.75A.75.75 0 0 0 18 0H6a.75.75 0 0 0-.75.75v4.5H.75A.75.75 0 0 0 0 6v17.25a.75.75 0 0 0 .75.75H6c.035.003.07.003.105 0h11.79c.035.003.07.003.105 0h5.25a.75.75 0 0 0 .75-.75V6a.75.75 0 0 0-.75-.75ZM1.5 6.75h3.75V22.5H1.5V6.75ZM6.75 6V1.5h10.5v21H6.75V6ZM22.5 22.5h-3.75V6.75h3.75V22.5Z" fill="currentColor"/><path d="M15 9H9a.75.75 0 0 0 0 1.5h6A.75.75 0 1 0 15 9Zm0-3.75H9a.75.75 0 0 0 0 1.5h6a.75.75 0 1 0 0-1.5Zm0 7.5H9a.75.75 0 1 0 0 1.5h6a.75.75 0 1 0 0-1.5Zm0 3.75H9A.75.75 0 1 0 9 18h6a.75.75 0 1 0 0-1.5Z" fill="currentColor"/></svg>
